X:1
T:Cochran, 10.4.10.4.10.10
T:Cochran, 10.4.10.4.10.10
T:Uzziah Christopher Burnap (1834-1900)
T:Public Domain Courtesy of the Cyber Hymnal™
C:Uzziah Christopher Burnap (1834-1900)
Z:Public Domain
Z:Courtesy of the Cyber Hymnal™
%%score 1 2
L:1/8
M:4/4
K:G
V:1 treble 
V:2 bass 
V:1
 [B,B]4 [B,A]2 [B,B]2 | [B,D]4 [B,E]4 | [CF]2 [CF]2 [CE]2 [CD]2 | [B,B]8 | [DB]4 [^CA]2 [CE]2 | %5
 [DA]8 | [B,B]4 [B,F]2 [B,G]2 | [B,D]4 [DB]4 | [Dd]2 [Dc]2 [DA]2 [DB]2 | [Dc]8 | %10
 [DB]4 [CE]2 [DF]2 | [DG]8 | [GB]4 [Fc]2 [AB]2 | [Ge]4 [EB]4 | [^Dc]2 [EB]2 [EA]2 [EG]2 | [^DF]8 | %16
 [CF]4 [CA]2 [CD]2 | [B,G]4 [DB]4 | [EB]2 [Ec]2 [CE]2 [CF]2 | [B,G]8 |] %20
V:2
 [G,,D,]4 [G,,D,]2 [G,,D,]2 | [G,,D,]4 [G,,D,]4 | [A,,D,]2 [A,,A,]2 [D,G,]2 [D,F,]2 | [G,,G,]8 | %4
 [G,,G,]4 [A,,G,]2 [E,G,]2 | [D,F,]8 | [G,,D,]4 [G,,D,]2 [G,,D,]2 | [G,,D,]4 [G,,G,]4 | %8
 [A,,F,]2 [A,,F,]2 [D,F,]2 [D,G,]2 | [D,A,]8 | [G,,G,]4 [C,G,]2 [A,,C]2 | [G,,B,]8 | %12
 [E,B,]4 [E,A,]2 [E,C]2 | [E,B,]4 [G,B,]4 | [F,A,]2 [G,B,]2 [A,,C]2 [A,,E,]2 | [B,,B,]8 | %16
 [D,A,]4 [D,G,]2 [D,F,]2 | [G,,G,]4 [G,,G,]4 | [C,G,]2 [C,A,]2 [A,,A,]2 [D,A,]2 | [G,,G,]8 |] %20

